X:1
T:Humours Of Brooklyn
C:Brad Maloney
Z:Bradford Maloney  irtrad-l 2000-4-11
R:Reel
M:C
L:1/8
K:Dm
DE|FEDC =B,CDE | 3FED cD =BDAD | FEDC =B,CDE | (3FED EC D2 =CD |
FEDC =B,CDE | (3FED cD =BDdD | FEDC =B,CDE | D^FA^c d4|]
(3^fed fd adfd | =B3 d BAGA | B^F (3FFF dF^cF| =BA^FB AFED |
(3^fed fd adfd | ~B3 d BAGE | DFAB =cBAG |(3EFE DC D4:|
